src/assets/social-media/reddit.svg

<svg fill="none" height="24" viewBox="0 0 25 24" width="25" xmlns="http://www.w3.org/2000/svg" xmlns:xlink="http://www.w3.org/1999/xlink"><radialGradient id="a" cx="0" cy="0" gradientTransform="matrix(0 21.6312 -24 0 12.3334 1.18445)" gradientUnits="userSpaceOnUse" r="1"><stop offset="0" stop-color="#fff"/><stop offset="1" stop-color="#fff" stop-opacity=".3"/></radialGradient><clipPath id="b"><path d="m.333374 0h24v24h-24z"/></clipPath><g clip-path="url(#b)"><path d="m24.3334 11.4157c0-1.68004-1.32-3.00004-3-3.00004-.72 0-1.44.24-1.92.72-1.8-1.08-3.96-1.8-6.48-1.92l1.32-4.8 4.08 1.2c0 1.32 1.08 2.4 2.4 2.4s2.4-1.08 2.4-2.4-1.08-2.4-2.4-2.4c-.84 0-1.68.48-2.04 1.2l-4.8-1.2c-.36-.12-.6.12-.72.48l-1.44 5.52c-2.40003.12-4.68003.84-6.48003 1.92-.48-.48-1.2-.72-1.92-.72-1.68 0-2.999996 1.32-2.999996 3.00004 0 1.08.48 1.92 1.319996 2.52l-.12 1.08c0 4.32 4.8 7.8 10.80003 7.8 6 0 10.8-3.48 10.8-7.8l-.12-1.08c.84-.6 1.32-1.44 1.32-2.52zm-15.60003.36c.84 0 1.44003.72 1.44003 1.44s-.60003 1.44-1.44003 1.44-1.44-.6-1.44-1.44.6-1.44 1.44-1.44zm8.16003 6.48c-2.16 1.32-6.96003 1.32-9.12003 0-.24-.24-.36-.6-.12-.84s.6-.36.84-.12c1.44 1.08 6.24003 1.08 7.68003 0 .24-.24.6-.12.84.12s.12.6-.12.84zm-.96-3.6c-.84 0-1.44-.72-1.44-1.44 0-.84.72-1.44 1.44-1.44.84 0 1.44.72 1.44 1.44 0 .84-.6 1.44-1.44 1.44z" fill="url(#a)"/></g></svg>

<svg width="25" height="24" viewBox="0 0 25 24" fill="none" xmlns="http://www.w3.org/2000/svg">
<g clip-path="url(#clip0_7462_3956)">
<path d="M24.3334 11.4157C24.3334 9.73566 23.0134 8.41566 21.3334 8.41566C20.6134 8.41566 19.8934 8.65566 19.4134 9.13566C17.6134 8.05566 15.4534 7.33566 12.9334 7.21566L14.2534 2.41566L18.3334 3.61566C18.3334 4.93566 19.4134 6.01566 20.7334 6.01566C22.0534 6.01566 23.1334 4.93566 23.1334 3.61566C23.1334 2.29566 22.0534 1.21566 20.7334 1.21566C19.8934 1.21566 19.0534 1.69566 18.6934 2.41566L13.8934 1.21566C13.5334 1.09566 13.2934 1.33566 13.1734 1.69566L11.7334 7.21566C9.33337 7.33566 7.05337 8.05566 5.25337 9.13566C4.77337 8.65566 4.05337 8.41566 3.33337 8.41566C1.65337 8.41566 0.333374 9.73566 0.333374 11.4157C0.333374 12.4957 0.813374 13.3357 1.65337 13.9357L1.53337 15.0157C1.53337 19.3357 6.33337 22.8157 12.3334 22.8157C18.3334 22.8157 23.1334 19.3357 23.1334 15.0157L23.0134 13.9357C23.8534 13.3357 24.3334 12.4957 24.3334 11.4157ZM8.73337 11.7757C9.57337 11.7757 10.1734 12.4957 10.1734 13.2157C10.1734 13.9357 9.57337 14.6557 8.73337 14.6557C7.89337 14.6557 7.29337 14.0557 7.29337 13.2157C7.29337 12.3757 7.89337 11.7757 8.73337 11.7757ZM16.8934 18.2557C14.7334 19.5757 9.93337 19.5757 7.77337 18.2557C7.53337 18.0157 7.41337 17.6557 7.65337 17.4157C7.89337 17.1757 8.25337 17.0557 8.49337 17.2957C9.93337 18.3757 14.7334 18.3757 16.1734 17.2957C16.4134 17.0557 16.7734 17.1757 17.0134 17.4157C17.2534 17.6557 17.1334 18.0157 16.8934 18.2557ZM15.9334 14.6557C15.0934 14.6557 14.4934 13.9357 14.4934 13.2157C14.4934 12.3757 15.2134 11.7757 15.9334 11.7757C16.7734 11.7757 17.3734 12.4957 17.3734 13.2157C17.3734 14.0557 16.7734 14.6557 15.9334 14.6557Z" fill="url(#paint0_radial_7462_3956)"/>
</g>
<defs>
<radialGradient id="paint0_radial_7462_3956" cx="0" cy="0" r="1" gradientUnits="userSpaceOnUse" gradientTransform="translate(12.3334 1.18445) rotate(90) scale(21.6312 24)">
<stop stop-color="white"/>
<stop offset="1" stop-color="white" stop-opacity="0.3"/>
</radialGradient>
<clipPath id="clip0_7462_3956">
<rect width="24" height="24" fill="white" transform="translate(0.333374)"/>
</clipPath>
</defs>
</svg>
